X:1
T:[ID 1-92a]
T:[ID 1-92a]
T:Bezeichnung standardisiert: Capelahn; Capelahn 20. In anderer Quelle: Menuet - Hs. Musicq Boek, ab 1740 (Anm. S. Wascher);
T:Urheber unbekannt Erstbeleg: ab 1740 (Datum in der schriftlichen Quelle) Datum in der hier transkribierten schriftlichen Quelle: 1775
C:Urheber unbekannt
C:Erstbeleg: ab 1740 (Datum in der schriftlichen Quelle)
C:Datum in der hier transkribierten schriftlichen Quelle: 1775
L:1/8
M:3/4
K:D
V:1 treble 
V:1
 FG d2 G2 | F4 F2 | de f2 e2 | dcde d2 | FG d2 G2 | F4 F2 | de f2 e2 | d6 :: defd e2 | cdec d2 | %10
 defd e2 | cdec d2 | FGdecA | F6 :| %14

